src/img/icons/dark/import-keystore-file-dark.svg

<?xml version="1.0" encoding="UTF-8"?>
<svg width="40px" height="40px" viewBox="0 0 40 40" version="1.1" xmlns="http://www.w3.org/2000/svg" xmlns:xlink="http://www.w3.org/1999/xlink">
    <!-- Generator: Sketch 58 (84663) - https://sketch.com -->
    <title>Icon/40/KeystoreFile-Dark</title>
    <desc>Created with Sketch.</desc>
    <defs>
        <linearGradient x1="50%" y1="0%" x2="50%" y2="100%" id="linearGradient-1">
            <stop stop-color="#999999" offset="0%"></stop>
            <stop stop-color="#BCBCBC" offset="100%"></stop>
        </linearGradient>
        <linearGradient x1="50%" y1="0%" x2="50%" y2="100%" id="linearGradient-2">
            <stop stop-color="#1F5AF6" offset="0%"></stop>
            <stop stop-color="#477AFF" offset="100%"></stop>
        </linearGradient>
    </defs>
    <g id="Icon/40/KeystoreFile-Dark" stroke="none" stroke-width="1" fill="none" fill-rule="evenodd">
        <path d="M6.5,2.5 L27.25,2.5 L27.25,2.5 L34.5,9.58333333 L34.5,36.5 C34.5,37.0522847 34.0522847,37.5 33.5,37.5 L6.5,37.5 C5.94771525,37.5 5.5,37.0522847 5.5,36.5 L5.5,3.5 C5.5,2.94771525 5.94771525,2.5 6.5,2.5 Z" id="Rectangle" fill="url(#linearGradient-1)" fill-rule="nonzero"></path>
        <path d="M21.7197769,15.0307808 C22.1092026,15.1420453 22.3483577,15.5233828 22.2920195,15.9133921 L22.2692192,16.0197769 L19.2692192,26.5197769 C19.1478397,26.9446049 18.7050511,27.1905986 18.2802231,27.0692191 C17.8907974,26.9579547 17.6516423,26.5766172 17.7079805,26.1866079 L17.7307808,26.0802231 L20.7307808,15.5802231 C20.8521603,15.1553951 21.2949489,14.9094014 21.7197769,15.0307808 Z M24.9759591,15.9068552 L25.0656854,15.9843145 L29.5656854,20.4843145 C29.8497031,20.7683322 29.8755229,21.2127735 29.6431448,21.5259591 L29.5656854,21.6156854 L25.0656854,26.1156854 C24.753266,26.4281048 24.246734,26.4281048 23.9343146,26.1156854 C23.6502969,25.8316677 23.6244771,25.3872265 23.8568552,25.0740409 L23.9343146,24.9843145 L27.8686292,21.05 L23.9343146,17.1156854 C23.6218951,16.803266 23.6218951,16.296734 23.9343146,15.9843145 C24.2183322,15.7002969 24.6627735,15.6744771 24.9759591,15.9068552 Z M14.9343146,15.9843145 C15.246734,15.6718951 15.753266,15.6718951 16.0656854,15.9843145 C16.3781049,16.296734 16.3781049,16.803266 16.0656854,17.1156854 L16.0656854,17.1156854 L12.1313708,21.05 L16.0656854,24.9843145 C16.3781049,25.296734 16.3781049,25.803266 16.0656854,26.1156854 C15.753266,26.4281048 15.246734,26.4281048 14.9343146,26.1156854 L14.9343146,26.1156854 L10.4343146,21.6156854 C10.1218951,21.303266 10.1218951,20.796734 10.4343146,20.4843145 L10.4343146,20.4843145 Z" id="Combined-Shape" fill="url(#linearGradient-2)"></path>
        <path d="M34.45,9.58333333 L28.2,9.58333333 C27.6477153,9.58333333 27.2,9.13561808 27.2,8.58333333 L27.2,2.5 L27.2,2.5 L34.45,9.58333333 Z" id="Rectangle" fill="#777777" fill-rule="nonzero"></path>
    </g>
</svg>

<svg xmlns="http://www.w3.org/2000/svg" width="40" height="40" viewBox="0 0 40 40">
    <defs>
        <linearGradient id="a" x1="68.857%" x2="68.857%" y1="100%" y2="0%">
            <stop offset="0%" stop-color="#999"/>
            <stop offset="100%" stop-color="#BCBCBC"/>
        </linearGradient>
    </defs>
    <g fill="none" fill-rule="evenodd">
        <path fill="url(#a)" fill-rule="nonzero" d="M6.5 2.5h20.75l7.25 7.083V36.5a1 1 0 0 1-1 1h-27a1 1 0 0 1-1-1v-33a1 1 0 0 1 1-1z"/>
        <path fill="#5A81EA" d="M21.72 15.03a.8.8 0 0 1 .572.883l-.023.107-3 10.5a.8.8 0 0 1-1.561-.333l.023-.107 3-10.5a.8.8 0 0 1 .989-.55zm3.256.877l.09.077 4.5 4.5a.8.8 0 0 1 .077 1.042l-.077.09-4.5 4.5a.8.8 0 0 1-1.21-1.042l.078-.09 3.935-3.934-3.935-3.934a.8.8 0 0 1 1.042-1.21zm-10.042.077a.8.8 0 0 1 1.132 1.132L12.13 21.05l3.935 3.934a.8.8 0 1 1-1.132 1.132l-4.5-4.5a.8.8 0 0 1 0-1.132z"/>
        <path fill="#F6FAFF" fill-rule="nonzero" d="M34.5 9.083h-6.25a1 1 0 0 1-1-1V2l7.25 7.083z"/>
    </g>
</svg>
